assets/logos/icons/bell.svg

<svg height="24" viewBox="0 0 24 24" width="24" xmlns="http://www.w3.org/2000/svg"><path d="m16.5673916 13.6c-.3016174-.4-.4021566-.9-.4021566-1.3 0-.1 0-.2 0-.3 0-2.2-1.8097044-4-4.0215653-4-2.21186089 0-4.02156527 1.8-4.02156527 4v.2c0 .5-.10053913.9-.40215653 1.3l-1.70916525 2.5h12.26577415zm-6.4345045-7.3c0-.1 0-.2 0-.3 0-1.1.9048522-2 2.0107826-2 1.1059305 0 2.0107827.9 2.0107827 2v.3c2.3124.8 4.0215653 3 4.0215653 5.7v.4l1.7091652 2.4c.6032348.9.4021565 2.1-.5026956 2.8-.3016174.2-.703774.4-1.2064696.4h-12.16523505c-1.10593046 0-2.01078265-.9-2.01078265-2 0-.4.10053913-.8.40215653-1.2l1.70916525-2.4c0-.2 0-.3 0-.4 0-2.6 1.70916525-4.8 4.02156532-5.7zm-1.00539135 12.7h6.03234795c-.3016174 1.1-1.6086261 2-3.016174 2-1.4075478 0-2.71455655-.8-3.01617395-2z" fill="#492f5c" fill-rule="evenodd"/></svg>

<svg xmlns="http://www.w3.org/2000/svg" xmlns:xlink="http://www.w3.org/1999/xlink" width="24" height="24" viewBox="0 0 24 24">
  <defs>
    <path id="bell-a" d="M16.5673916,13.6 C16.2657742,13.2 16.165235,12.7 16.165235,12.3 C16.165235,12.2 16.165235,12.1 16.165235,12 C16.165235,9.8 14.3555306,8 12.1436697,8 C9.93180881,8 8.12210443,9.8 8.12210443,12 C8.12210443,12.1 8.12210443,12.2 8.12210443,12.2 C8.12210443,12.7 8.0215653,13.1 7.7199479,13.5 L6.01078265,16 L18.2765568,16 L16.5673916,13.6 Z M10.1328871,6.3 C10.1328871,6.2 10.1328871,6.1 10.1328871,6 C10.1328871,4.9 11.0377393,4 12.1436697,4 C13.2496002,4 14.1544524,4.9 14.1544524,6 C14.1544524,6.1 14.1544524,6.2 14.1544524,6.3 C16.4668524,7.1 18.1760177,9.3 18.1760177,12 C18.1760177,12.1 18.1760177,12.3 18.1760177,12.4 L19.8851829,14.8 C20.4884177,15.7 20.2873394,16.9 19.3824873,17.6 C19.0808699,17.8 18.6787133,18 18.1760177,18 L6.01078265,18 C4.90485219,18 4,17.1 4,16 C4,15.6 4.10053913,15.2 4.40215653,14.8 L6.11132178,12.4 C6.11132178,12.2 6.11132178,12.1 6.11132178,12 C6.11132178,9.4 7.82048703,7.2 10.1328871,6.3 Z M9.12749575,19 L15.1598437,19 C14.8582263,20.1 13.5512176,21 12.1436697,21 C10.7361219,21 9.42911315,20.2 9.12749575,19 Z"/>
  </defs>
  <use fill="#492F5C" fill-rule="evenodd" xlink:href="#bell-a"/>
</svg>
